src/assets/icons/virtuososTitle.svg

<svg width="149" height="77" viewBox="0 0 149 77" fill="none" xmlns="http://www.w3.org/2000/svg">
<path d="M27.4913 33.6434V30.0543L37.2332 30.2252C39.2842 30.2252 42.0529 32.1052 42.1896 36.207C42.3264 40.3087 39.512 42.2456 38.0878 42.7014L42.5315 52.1012H38.6005L33.9859 43.0432H31.4222V52.1012H27.4913V38.9415H35.8659C36.5496 38.9415 38.2245 37.9844 38.0878 36.207C37.951 34.4295 36.7205 33.6434 35.8659 33.6434H27.4913Z" fill="white" stroke="white" stroke-width="0.5"/>
<path d="M20.1421 48.3413V30.0543H24.244V48.5122H26.6367V52.1012H17.4075V48.3413H20.1421Z" fill="white" stroke="white" stroke-width="0.5"/>
<path d="M9.20375 51.9303L1 30.2252H4.93096L9.37466 42.0178L12.2802 34.327H16.382L9.20375 51.9303Z" fill="white" stroke="white" stroke-width="0.5"/>
<path d="M43.386 33.6434V30.0543H56.7171V33.6434H43.386Z" fill="white"/>
<path d="M47.8297 52.2722V37.916H52.1025V52.2722H47.8297Z" fill="white"/>
<path d="M43.386 33.6434V30.0543H56.7171V33.6434H43.386Z" stroke="white" stroke-width="0.5"/>
<path d="M47.8297 52.2722V37.916H52.1025V52.2722H47.8297Z" stroke="white" stroke-width="0.5"/>
<path d="M61.6735 33.9852H57.5717V46.6322C57.7426 48.5122 60.5113 52.2722 66.1172 52.2722C71.7231 52.2722 74.1501 48.1704 74.321 46.1195V30.0543H69.8773V45.7777C69.8773 46.4613 68.8518 47.9995 66.1172 47.9995C63.3826 47.9995 61.6735 46.2904 61.6735 45.4359V33.9852Z" fill="white" stroke="white" stroke-width="0.5"/>
<path d="M111.409 36.3779H107.478C107.478 34.4637 105.427 33.9852 104.743 33.9852C104.06 33.9852 101.838 34.327 101.838 36.3779C101.838 38.5996 103.547 38.9415 104.743 39.1124C105.94 39.2833 111.409 39.8302 111.409 45.4359C111.409 51.0416 107.079 52.2152 104.914 52.1012V48.3413C106.965 48.3413 107.478 46.4613 107.478 45.4359C107.478 44.5814 106.794 43.0882 104.743 42.8723C98.2486 42.1887 97.6789 38.5427 97.7359 36.3779C97.9637 34.27 99.6842 30.0543 104.743 30.0543C109.802 30.0543 111.295 34.27 111.409 36.3779Z" fill="white" stroke="white" stroke-width="0.5"/>
<path d="M148.5 36.3779H144.569C144.569 34.4637 142.518 33.9852 141.834 33.9852C141.151 33.9852 138.929 34.327 138.929 36.3779C138.929 38.5996 140.638 38.9415 141.834 39.1124C143.031 39.2833 148.5 39.8302 148.5 45.4359C148.5 51.0416 144.17 52.2152 142.005 52.1012V48.3413C144.056 48.3413 144.569 46.4613 144.569 45.4359C144.569 44.5814 143.885 43.0882 141.834 42.8723C135.34 42.1887 134.77 38.5427 134.827 36.3779C135.055 34.27 136.775 30.0543 141.834 30.0543C146.893 30.0543 148.386 34.27 148.5 36.3779Z" fill="white" stroke="white" stroke-width="0.5"/>
<path d="M87.823 40.9923C87.823 39.7959 86.6266 39.1123 85.7721 39.1123C84.9175 39.1123 83.892 39.7959 83.892 40.9923C83.892 42.1886 84.9175 43.0432 85.7721 43.0432C86.7975 43.0432 87.823 42.1886 87.823 40.9923Z" fill="white" stroke="white" stroke-width="0.5"/>
<path d="M96.5395 40.6505C96.5395 32.447 89.8739 30.0543 85.7721 30.0543C77.1581 30.0543 75.1755 37.1184 75.3465 40.6505H79.4483C79.2774 38.4287 80.2687 33.9852 85.6011 33.9852C90.9336 33.9852 92.3806 38.4287 92.4376 40.6505H96.5395Z" fill="white" stroke="white" stroke-width="0.5"/>
<path d="M75.3464 40.6505C75.3464 50.2212 82.0021 52.2721 86.1039 52.2721C94.7179 52.2721 96.7104 44.1825 96.5394 40.6505H94.4885H92.4376C92.6085 42.8722 91.2412 48.3412 86.2749 48.3412C80.9424 48.3412 79.4483 44.7522 79.4483 40.6505H77.3974H75.3464Z" fill="white" stroke="white" stroke-width="0.5"/>
<path d="M124.911 40.9923C124.911 39.7959 123.714 39.1123 122.86 39.1123C122.005 39.1123 120.98 39.7959 120.98 40.9923C120.98 42.1886 122.005 43.0432 122.86 43.0432C123.885 43.0432 124.911 42.1886 124.911 40.9923Z" fill="white" stroke="white" stroke-width="0.5"/>
<path d="M133.808 40.6505C133.808 32.447 127.142 30.0543 123.041 30.0543C114.427 30.0543 112.444 37.1184 112.615 40.6505H116.717C116.546 38.4287 117.537 33.9852 122.87 33.9852C128.202 33.9852 129.649 38.4287 129.706 40.6505H133.808Z" fill="white" stroke="white" stroke-width="0.5"/>
<path d="M112.615 40.6505C112.615 50.2212 119.271 52.2721 123.373 52.2721C131.986 52.2721 133.979 44.1825 133.808 40.6505H131.757H129.706C129.877 42.8722 128.51 48.3412 123.543 48.3412C118.211 48.3412 116.717 44.7522 116.717 40.6505H114.666H112.615Z" fill="white" stroke="white" stroke-width="0.5"/>
<path d="M112.605 38.258C112.605 12.2802 89.8739 1.00037 75.0046 1.00037C59.6226 1.00037 37.4041 12.622 37.4041 38.258C37.4041 63.8939 58.9389 76.3701 75.5173 76.3701C86.7975 76.3701 112.605 67.2466 112.605 38.258Z" stroke="white" stroke-width="0.5"/>
<path d="M56.5462 5.95654C51.4189 9.20376 67.6535 12.6219 75.0047 12.6219C86.4557 12.6219 96.8813 9.03286 93.463 5.95654" stroke="white" stroke-width="0.5"/>
<path d="M93.2921 71.4137C98.4195 68.1665 84.045 64.5774 75.0046 64.5774C63.5536 64.5774 52.9571 68.1665 56.5462 71.2428" stroke="white" stroke-width="0.5"/>
<path d="M107.57 20.4836C107.57 21.6291 106.742 22.7777 105.102 23.8677C103.473 24.9514 101.098 25.9371 98.1406 26.7688C92.23 28.4311 84.0501 29.4625 75.0046 29.4625C65.9592 29.4625 57.7793 28.4311 51.8686 26.7688C48.9115 25.9371 46.5367 24.9514 44.9068 23.8677C43.2675 22.7777 42.4396 21.6291 42.4396 20.4836C42.4396 19.3381 43.2675 18.1895 44.9068 17.0994C46.5367 16.0157 48.9115 15.03 51.8686 14.1984C57.7793 12.5361 65.9592 11.5046 75.0046 11.5046C84.0501 11.5046 92.23 12.5361 98.1406 14.1984C101.098 15.03 103.473 16.0157 105.102 17.0994C106.742 18.1895 107.57 19.3381 107.57 20.4836Z" stroke="white" stroke-width="0.5"/>
<path d="M107.57 57.0576C107.57 58.2031 106.742 59.3516 105.102 60.4417C103.473 61.5254 101.098 62.5111 98.1406 63.3427C92.23 65.0051 84.0501 66.0365 75.0046 66.0365C65.9592 66.0365 57.7793 65.0051 51.8686 63.3427C48.9115 62.5111 46.5367 61.5254 44.9068 60.4417C43.2675 59.3516 42.4396 58.2031 42.4396 57.0576C42.4396 55.912 43.2675 54.7635 44.9068 53.6734C46.5367 52.5897 48.9115 51.604 51.8686 50.7724C57.7793 49.11 65.9592 48.0786 75.0046 48.0786C84.0501 48.0786 92.23 49.11 98.1406 50.7724C101.098 51.604 103.473 52.5897 105.102 53.6734C106.742 54.7635 107.57 55.912 107.57 57.0576Z" stroke="white" stroke-width="0.5"/>
<path d="M112.355 38.5997C112.355 39.9343 111.393 41.2627 109.512 42.5162C107.64 43.7634 104.914 44.8964 101.524 45.8517C94.7477 47.7615 85.3715 48.9459 75.0046 48.9459C64.6377 48.9459 55.2615 47.7615 48.4849 45.8517C45.0948 44.8964 42.3695 43.7634 40.4976 42.5162C38.6162 41.2627 37.6541 39.9343 37.6541 38.5997C37.6541 37.2652 38.6162 35.9368 40.4976 34.6833C42.3695 33.436 45.0948 32.3031 48.4849 31.3477C55.2615 29.438 64.6377 28.2535 75.0046 28.2535C85.3715 28.2535 94.7477 29.438 101.524 31.3477C104.914 32.3031 107.64 33.436 109.512 34.6833C111.393 35.9368 112.355 37.2652 112.355 38.5997Z" stroke="white" stroke-width="0.5"/>
<path d="M75.0046 1.0003C73.8082 0.829391 69.6722 73.3279 75.0046 76.1991" stroke="white" stroke-width="0.5"/>
<path d="M75.6883 1.00024C78.9356 3.56384 77.9101 61.672 74.8337 76.37" stroke="white" stroke-width="0.5"/>
<path d="M78.4229 1.17126C61.8444 1.17126 40.9932 54.8359 64.4081 74.661" stroke="white" stroke-width="0.5"/>
<path d="M67.4845 1.85486C52.7861 11.0838 56.0335 62.1848 76.0301 76.37" stroke="white" stroke-width="0.5"/>
<path d="M78.7647 1.17114C55.008 3.56383 28.1749 32.9597 47.8297 64.7483" stroke="white" stroke-width="0.5"/>
<path d="M81.6702 75.6864C59.4517 76.37 44.5824 62.5266 40.6514 54.1522" stroke="white" stroke-width="0.5"/>
<path d="M80.6448 1.51306C66.63 1.51306 53.8116 7.49478 51.9316 9.20385C37.575 24.5854 39.1132 66.1157 78.0811 76.1991" stroke="white" stroke-width="0.5"/>
<path d="M68.51 1.68397C87.823 -3.27231 101.838 61.843 82.1829 75.5155" stroke="white" stroke-width="0.5"/>
<path d="M83.3793 2.02576C102.18 7.15295 99.7868 63.3811 73.2955 76.37" stroke="white" stroke-width="0.5"/>
<path d="M64.7499 2.53843C96.3685 -5.15237 134.653 57.7412 73.2955 76.37" stroke="white" stroke-width="0.5"/>
<path d="M95.3431 70.2174C111.921 56.0322 110.554 20.2532 102.692 13.3056C91.7291 3.6175 83.5502 2.3676 69.1936 1.51306" stroke="white" stroke-width="0.5"/>
<path d="M86.6266 74.3191C87.1393 74.3191 80.3057 76.37 75.1755 76.37C70.7318 76.37 64.2372 74.6609 64.579 74.6609C65.0917 74.6609 70.39 75.0027 75.1755 74.8318C80.4738 74.8318 86.1138 74.3191 86.6266 74.3191Z" fill="white"/>
<path d="M84.9175 2.3675C85.772 2.70931 80.4793 2.3675 75.0046 2.3675C69.5299 2.3675 64.7499 2.70931 65.4336 2.3675C65.9463 2.11113 70.0482 1.00024 75.0046 1.00024C78.9356 1.00024 83.7089 1.8841 84.9175 2.3675Z" fill="white"/>
</svg>

<svg xmlns="http://www.w3.org/2000/svg" width="149" height="77" fill="none"><path fill="#fff" stroke="#fff" stroke-width=".5" d="M27.491 33.643v-3.589l9.742.171c2.051 0 4.82 1.88 4.957 5.982s-2.678 6.039-4.102 6.494l4.444 9.4H38.6l-4.615-9.058h-2.564v9.058h-3.93v-13.16h8.374c.684 0 2.358-.957 2.222-2.734s-1.367-2.564-2.222-2.564zM20.142 48.341V30.054h4.102v18.458h2.393v3.59h-9.23v-3.76zM9.204 51.93 1 30.225h3.931l4.444 11.793 2.905-7.691h4.102z"/><path fill="#fff" d="M43.386 33.643v-3.589h13.331v3.59zM47.83 52.272V37.916h4.273v14.356z"/><path stroke="#fff" stroke-width=".5" d="M43.386 33.643v-3.589h13.331v3.59zM47.83 52.272V37.916h4.273v14.356z"/><path fill="#fff" stroke="#fff" stroke-width=".5" d="M61.674 33.985h-4.102v12.647c.17 1.88 2.94 5.64 8.545 5.64s8.033-4.102 8.204-6.152V30.054h-4.444v15.724c0 .683-1.025 2.221-3.76 2.221s-4.444-1.709-4.444-2.563zM111.409 36.378h-3.931c0-1.914-2.051-2.393-2.735-2.393s-2.905.342-2.905 2.393c0 2.222 1.709 2.563 2.905 2.734 1.197.171 6.666.718 6.666 6.324s-4.33 6.78-6.495 6.665v-3.76c2.051 0 2.564-1.88 2.564-2.905 0-.855-.684-2.348-2.735-2.564-6.494-.683-7.064-4.33-7.007-6.494.228-2.108 1.948-6.324 7.007-6.324s6.552 4.216 6.666 6.324ZM148.5 36.378h-3.931c0-1.914-2.051-2.393-2.735-2.393s-2.905.342-2.905 2.393c0 2.222 1.709 2.563 2.905 2.734 1.197.171 6.666.718 6.666 6.324s-4.33 6.78-6.495 6.665v-3.76c2.051 0 2.564-1.88 2.564-2.905 0-.855-.684-2.348-2.735-2.564-6.494-.683-7.064-4.33-7.007-6.494.228-2.108 1.948-6.324 7.007-6.324s6.552 4.216 6.666 6.324ZM87.823 40.992c0-1.196-1.196-1.88-2.05-1.88-.855 0-1.881.684-1.881 1.88 0 1.197 1.026 2.051 1.88 2.051 1.025 0 2.051-.854 2.051-2.05Z"/><path fill="#fff" stroke="#fff" stroke-width=".5" d="M96.54 40.65c0-8.203-6.666-10.596-10.768-10.596-8.614 0-10.597 7.064-10.425 10.597h4.101c-.17-2.222.82-6.666 6.153-6.666s6.78 4.444 6.837 6.666z"/><path fill="#fff" stroke="#fff" stroke-width=".5" d="M75.346 40.65c0 9.571 6.656 11.622 10.758 11.622 8.614 0 10.606-8.09 10.435-11.621h-4.101c.17 2.221-1.197 7.69-6.163 7.69-5.333 0-6.827-3.589-6.827-7.69h-4.102ZM124.911 40.992c0-1.196-1.197-1.88-2.051-1.88s-1.88.684-1.88 1.88c0 1.197 1.025 2.051 1.88 2.051 1.025 0 2.051-.854 2.051-2.05Z"/><path fill="#fff" stroke="#fff" stroke-width=".5" d="M133.808 40.65c0-8.203-6.666-10.596-10.767-10.596-8.614 0-10.597 7.064-10.426 10.597h4.102c-.171-2.222.82-6.666 6.153-6.666s6.779 4.444 6.836 6.666z"/><path fill="#fff" stroke="#fff" stroke-width=".5" d="M112.615 40.65c0 9.571 6.656 11.622 10.758 11.622 8.613 0 10.606-8.09 10.435-11.621h-4.102c.171 2.221-1.196 7.69-6.163 7.69-5.332 0-6.826-3.589-6.826-7.69h-4.102Z"/><path stroke="#fff" stroke-width=".5" d="M112.605 38.258C112.605 12.28 89.874 1 75.005 1c-15.382 0-37.6 11.622-37.6 37.258S58.938 76.37 75.516 76.37c11.28 0 37.088-9.123 37.088-38.112Z"/><path stroke="#fff" stroke-width=".5" d="M56.546 5.957c-5.127 3.247 11.107 6.665 18.459 6.665 11.45 0 21.876-3.59 18.458-6.665M93.292 71.414c5.127-3.248-9.247-6.837-18.287-6.837-11.451 0-22.048 3.59-18.459 6.666"/><path stroke="#fff" stroke-width=".5" d="M107.57 20.484c0 1.145-.828 2.294-2.468 3.384-1.629 1.083-4.004 2.07-6.961 2.9-5.911 1.663-14.09 2.694-23.136 2.694s-17.226-1.03-23.136-2.693c-2.958-.832-5.332-1.818-6.962-2.901-1.64-1.09-2.467-2.239-2.467-3.384s.828-2.295 2.467-3.385c1.63-1.083 4.005-2.069 6.962-2.9 5.91-1.663 14.09-2.694 23.136-2.694s17.225 1.031 23.136 2.693c2.957.832 5.332 1.818 6.961 2.901 1.64 1.09 2.468 2.24 2.468 3.385ZM107.57 57.058c0 1.145-.828 2.294-2.468 3.384-1.629 1.083-4.004 2.07-6.961 2.9-5.911 1.663-14.09 2.695-23.136 2.695s-17.226-1.032-23.136-2.694c-2.958-.832-5.332-1.818-6.962-2.901-1.64-1.09-2.467-2.239-2.467-3.384s.828-2.294 2.467-3.385c1.63-1.083 4.005-2.069 6.962-2.9 5.91-1.663 14.09-2.694 23.136-2.694S92.23 49.11 98.14 50.772c2.957.832 5.332 1.818 6.961 2.901 1.64 1.09 2.468 2.239 2.468 3.385Z"/><path stroke="#fff" stroke-width=".5" d="M112.355 38.6c0 1.334-.962 2.663-2.843 3.916-1.872 1.247-4.598 2.38-7.988 3.336-6.776 1.91-16.153 3.094-26.52 3.094-10.366 0-19.743-1.184-26.52-3.094-3.39-.956-6.114-2.089-7.986-3.336-1.882-1.253-2.844-2.582-2.844-3.916s.962-2.663 2.844-3.917c1.872-1.247 4.597-2.38 7.987-3.335 6.776-1.91 16.153-3.094 26.52-3.094s19.743 1.184 26.519 3.094c3.39.955 6.116 2.088 7.988 3.335 1.881 1.254 2.843 2.582 2.843 3.917Z"/><path stroke="#fff" stroke-width=".5" d="M75.005 1c-1.197-.17-5.333 72.328 0 75.2"/><path stroke="#fff" stroke-width=".5" d="M75.688 1c3.248 2.564 2.222 60.672-.854 75.37"/><path stroke="#fff" stroke-width=".5" d="M78.423 1.171c-16.579 0-37.43 53.665-14.015 73.49"/><path stroke="#fff" stroke-width=".5" d="M67.485 1.855c-14.699 9.229-11.452 60.33 8.545 74.515"/><path stroke="#fff" stroke-width=".5" d="M78.765 1.171C55.008 3.564 28.175 32.96 47.83 64.748"/><path stroke="#fff" stroke-width=".5" d="M81.67 75.686c-22.218.684-37.088-13.16-41.019-21.534"/><path stroke="#fff" stroke-width=".5" d="M80.645 1.513c-14.015 0-26.833 5.982-28.713 7.69C37.575 24.586 39.113 66.117 78.082 76.2"/><path stroke="#fff" stroke-width=".5" d="M68.51 1.684c19.313-4.956 33.328 60.159 13.673 73.832"/><path stroke="#fff" stroke-width=".5" d="M83.38 2.026c18.8 5.127 16.407 61.355-10.084 74.344"/><path stroke="#fff" stroke-width=".5" d="M64.75 2.538c31.618-7.69 69.903 55.203 8.546 73.832"/><path stroke="#fff" stroke-width=".5" d="M95.343 70.217c16.578-14.185 15.211-49.964 7.349-56.911C91.729 3.618 83.55 2.368 69.194 1.513"/><path fill="#fff" d="M86.627 74.32c.512 0-6.321 2.05-11.451 2.05-4.444 0-10.939-1.71-10.597-1.71.513 0 5.811.343 10.597.172 5.298 0 10.938-.513 11.45-.513M84.918 2.368c.854.341-4.439 0-9.913 0s-10.255.341-9.571 0C65.946 2.11 70.048 1 75.004 1c3.932 0 8.705.884 9.914 1.368"/></svg>
